svgs/xmanager.svg

<svg xmlns="http://www.w3.org/2000/svg" viewBox="0 0 192 192"><path d="M156.683 103.764a62.46 62.46 0 0 0 .558-7.764 62.446 62.446 0 0 0-.558-7.764l17.253-13.159a3.87 3.87 0 0 0 1.495-2.357 3.797 3.797 0 0 0-.499-2.728l-16.336-27.6a3.955 3.955 0 0 0-2.159-1.773 4.077 4.077 0 0 0-2.822.065l-20.36 7.997a62.852 62.852 0 0 0-13.787-7.764L116.4 19.839a4.047 4.047 0 0 0-1.387-2.355 4.25 4.25 0 0 0-2.597-.984H79.743a4.052 4.052 0 0 0-2.637.939 3.853 3.853 0 0 0-1.347 2.4l-3.068 21.078a61.611 61.611 0 0 0-13.786 7.764l-20.52-7.997a4.077 4.077 0 0 0-2.822-.065 3.955 3.955 0 0 0-2.159 1.773l-16.336 27.6a3.797 3.797 0 0 0-.499 2.728 3.87 3.87 0 0 0 1.495 2.357l17.213 13.159A63.042 63.042 0 0 0 34.719 96c.025 2.596.211 5.189.558 7.764l-17.213 13.159a3.87 3.87 0 0 0-1.495 2.357 3.797 3.797 0 0 0 .499 2.728l16.336 27.6a3.955 3.955 0 0 0 2.159 1.773 4.077 4.077 0 0 0 2.822-.065l20.36-7.997a62.852 62.852 0 0 0 13.787 7.764l3.068 21.078a3.853 3.853 0 0 0 1.347 2.4 4.05 4.05 0 0 0 2.637.939h32.673a4.052 4.052 0 0 0 2.637-.939 3.853 3.853 0 0 0 1.347-2.4l3.068-21.078a61.611 61.611 0 0 0 13.786-7.764l20.361 7.997c.901.357 1.905.38 2.822.065a3.957 3.957 0 0 0 2.158-1.773l16.337-27.6c.505-.818.682-1.79.499-2.728a3.872 3.872 0 0 0-1.496-2.357Z" fill="none" stroke="#000" stroke-width="12" stroke-linecap="round" stroke-linejoin="round"/><path d="M138.116 102.289c-7.819-10.674-18.042-19.465-29.884-25.698-11.483-6.877-24.433-11.1-37.852-12.344m47.056 53.375c-5.799-7.972-13.407-14.535-22.233-19.176a66.282 66.282 0 0 0-28.13-9.162m31.557 40.449c-3.789-5.231-8.784-9.526-14.583-12.538a42.43 42.43 0 0 0-18.408-5.978" fill="none" stroke="#000" stroke-width="12" stroke-linecap="round" stroke-linejoin="round"/></svg>

<svg
    xmlns="http://www.w3.org/2000/svg"
    viewBox="0 0 192 192"
    id="vector">
    <path
        id="path"
        d="M 156.683 103.764 C 157.03 101.189 157.217 98.596 157.241 96 C 157.217 93.403 157.03 90.811 156.683 88.236 L 173.936 75.077 C 174.715 74.497 175.247 73.658 175.431 72.72 C 175.615 71.782 175.437 70.81 174.932 69.992 L 158.596 42.392 C 158.123 41.564 157.355 40.933 156.437 40.619 C 155.52 40.304 154.516 40.327 153.615 40.684 L 133.255 48.681 C 129.018 45.53 124.385 42.921 119.468 40.917 L 116.4 19.839 C 116.228 18.922 115.738 18.091 115.013 17.484 C 114.288 16.877 113.371 16.529 112.416 16.5 L 79.743 16.5 C 78.777 16.491 77.839 16.825 77.106 17.439 C 76.373 18.053 75.894 18.906 75.759 19.839 L 72.691 40.917 C 67.768 42.909 63.134 45.519 58.905 48.681 L 38.385 40.684 C 37.484 40.327 36.48 40.304 35.563 40.619 C 34.645 40.933 33.877 41.564 33.404 42.392 L 17.068 69.992 C 16.563 70.81 16.385 71.782 16.569 72.72 C 16.753 73.658 17.285 74.497 18.064 75.077 L 35.277 88.236 C 34.931 90.811 34.745 93.404 34.719 96 C 34.744 98.596 34.93 101.189 35.277 103.764 L 18.064 116.923 C 17.285 117.503 16.753 118.342 16.569 119.28 C 16.385 120.218 16.563 121.19 17.068 122.008 L 33.404 149.608 C 33.877 150.436 34.645 151.067 35.563 151.381 C 36.48 151.696 37.484 151.673 38.385 151.316 L 58.745 143.319 C 62.982 146.47 67.615 149.079 72.532 151.083 L 75.6 172.161 C 75.735 173.094 76.214 173.947 76.947 174.561 C 77.68 175.175 78.617 175.509 79.584 175.5 L 112.257 175.5 C 113.223 175.509 114.161 175.175 114.894 174.561 C 115.627 173.947 116.106 173.094 116.241 172.161 L 119.309 151.083 C 124.232 149.091 128.866 146.481 133.095 143.319 L 153.456 151.316 C 154.357 151.673 155.361 151.696 156.278 151.381 C 157.195 151.067 157.963 150.436 158.436 149.608 L 174.773 122.008 C 175.278 121.19 175.455 120.218 175.272 119.28 C 175.088 118.342 174.555 117.503 173.776 116.923 Z"
        fill="none"
        stroke="#000000"
        stroke-width="12"
        stroke-linecap="round"
        stroke-linejoin="round"/>
    <path
        id="path_1"
        d="M 138.116 102.289 C 130.297 91.615 120.074 82.824 108.232 76.591 C 96.749 69.714 83.799 65.491 70.38 64.247 M 117.436 117.622 C 111.637 109.65 104.029 103.087 95.203 98.446 C 86.675 93.324 77.048 90.189 67.073 89.284 M 98.63 129.733 C 94.841 124.502 89.846 120.207 84.047 117.195 C 78.479 113.819 72.172 111.771 65.639 111.217"
        fill="none"
        stroke="#000000"
        stroke-width="12"
        stroke-linecap="round"
        stroke-linejoin="round"/>
</svg>
